icons/hicolor/16x16/actions/icon-octo-maze-symbolic.svg

<?xml version="1.0" encoding="UTF-8" standalone="no"?>
<svg
   xmlns:dc="http://purl.org/dc/elements/1.1/"
   xmlns:cc="http://creativecommons.org/ns#"
   xmlns:rdf="http://www.w3.org/1999/02/22-rdf-syntax-ns#"
   xmlns:svg="http://www.w3.org/2000/svg"
   xmlns="http://www.w3.org/2000/svg"
   xmlns:sodipodi="http://sodipodi.sourceforge.net/DTD/sodipodi-0.dtd"
   xmlns:inkscape="http://www.inkscape.org/namespaces/inkscape"
   inkscape:version="1.0 (4035a4fb49, 2020-05-01)"
   sodipodi:docname="octo-maze-symbolic.svg"
   width="64"
   height="64"
   version="1.1"
   id="svg24">
  <sodipodi:namedview
     inkscape:document-rotation="0"
     inkscape:current-layer="svg24"
     inkscape:window-maximized="1"
     inkscape:window-y="40"
     inkscape:window-x="0"
     inkscape:cy="32"
     inkscape:cx="-17.084746"
     inkscape:zoom="3.6875"
     showgrid="false"
     id="namedview948"
     inkscape:window-height="898"
     inkscape:window-width="1920"
     inkscape:pageshadow="2"
     inkscape:pageopacity="0"
     guidetolerance="10"
     gridtolerance="10"
     objecttolerance="10"
     borderopacity="1"
     bordercolor="#666666"
     pagecolor="#ffffff" />
  <metadata
     id="metadata30">
    <rdf:RDF>
      <cc:Work
         rdf:about="">
        <dc:format>image/svg+xml</dc:format>
        <dc:type
           rdf:resource="http://purl.org/dc/dcmitype/StillImage" />
        <dc:title />
      </cc:Work>
    </rdf:RDF>
  </metadata>
  <defs
     id="defs28" />
  <path
     style="fill:#cccccc;stroke-width:0.111308"
     id="path2"
     d="M 7.263953,46.161195 7.382683,17.655557 14.456444,13.622259 14.337857,42.0945 31.937497,52.363674 49.633196,42.241508 49.707306,13.757946 56.736047,17.861118 56.617414,46.344486 31.859081,60.5 Z m 21.295045,-32.4802 3.52582,-2.033389 3.531113,2.040518 -0.118678,28.494503 7.062678,-4.044475 L 42.66743,9.6547319 32.129879,3.5000001 21.519164,9.5666469 21.400486,38.061151 28.44036,42.164373 Z" />
</svg>

<svg xmlns="http://www.w3.org/2000/svg" width="64" height="64"><path d="m7.264 46.161.119-28.505 7.073-4.034-.118 28.472 17.6 10.27 17.695-10.122.074-28.484 7.029 4.103-.119 28.483L31.86 60.5Zm21.295-32.48 3.526-2.033 3.53 2.04-.118 28.495 7.063-4.045.107-28.483L32.13 3.5 21.52 9.567 21.4 38.06l7.04 4.103Z" style="fill:#ccc;stroke-width:.111308"/></svg>
